X: 083
T: Kew Gardens
B: 204 Favourite Country Dances
N: Published by Straight & Skillern, London ca.1775
F: http://imslp.org/wiki/204_Favourite_Country_Dances_(Various) p.42 #83
Z: 2014 John Chambers <jc:trillian.mit.edu>
M: C
L: 1/8
K: D
% - - - - - - - - - - - - - - - - - - - - - - - - -
|:\
f2ed cAeg | fdAf ecBA |\
FAdf Bdgb | afec d2D2 :|\
|:\
f2ed ceac | dfed cBAG |
FAdF GBdg | fdaf ecA2 |\
f2ed ecBA | g2bg afed |\
Bdgb Adfa | gedc d2D2 :|
% - - - - - - - - - - - - - - - - - - - - - - - - -
%%begintext align
%% The 1st Cu. foot it & cast off 2 Cu. .| foot it & cast
%% up again :| cross over 2 Cu. lead up to the top &
%% cast off .|. foot it hands round all 6 :|:
%%endtext

%%sep 1 1 500
%%sep 1 1 500
